X:682
T:There Was A Lad Was Born In Kyle
C:Joe Buchanan's Scottish Tome - Page 211.2
I:211 2
Z:Carl Allison
R:Reel
L:1/8
M:2/4
K:G
D/ | GG dG/A/ | BA AB/A/ | GG dG/A/ | (.B.g) d>d |
(e/f/)g/d/ (B/c/)d/B/ | (e/d/)c/B/ AB/A/ | G{f}g d/e/d/c/ | BA {f}G :|
d/ | gg g/a/b/g/ | (a/g/)a/b/ ag/e/ | (d/e/)g/a/ (g/a/)b/a/ gd ed |
(e/f/)g/d/ (B/c/)d/B/ | (e/d/)c/B/ AB/A/ | G{f}g d/e/d/c/ | BA {F}G :|

